resources/icons/16px/aimpoints-target.svg

<svg width="16" height="16" viewBox="0 0 16 16" fill="none" xmlns="http://www.w3.org/2000/svg">
<path d="M2.10088 9.10145C1.4041 9.2615 0.776798 9.60354 0.271693 10.0749C0.0944854 9.41315 0 8.71761 0 8C0 3.58172 3.58172 0 8 0C8.71761 0 9.41315 0.0944854 10.0749 0.271693C9.60354 0.776798 9.2615 1.4041 9.10145 2.10088C8.7444 2.03463 8.37625 2 8 2C4.68629 2 2 4.68629 2 8C2 8.37625 2.03463 8.7444 2.10088 9.10145Z" fill="black"/>
<path d="M14 8C14 7.62375 13.9654 7.2556 13.8991 6.89855C14.5959 6.7385 15.2232 6.39646 15.7283 5.92514C15.9055 6.58685 16 7.28239 16 8C16 12.4183 12.4183 16 8 16C7.28239 16 6.58685 15.9055 5.92514 15.7283C6.39646 15.2232 6.7385 14.5959 6.89855 13.8991C7.2556 13.9654 7.62375 14 8 14C11.3137 14 14 11.3137 14 8Z" fill="black"/>
<path d="M8 3C7.44775 3 7 3.44769 7 4V6C7 6.55231 7.44775 7 8 7C8.55225 7 9 6.55231 9 6V4C9 3.44769 8.55225 3 8 3Z" fill="black"/>
<path d="M9 8C9 7.44769 9.44775 7 10 7H12C12.5522 7 13 7.44769 13 8C13 8.55231 12.5522 9 12 9H10C9.44775 9 9 8.55231 9 8Z" fill="black"/>
<path d="M3 8C3 7.44769 3.44775 7 4 7H6C6.55225 7 7 7.44769 7 8C7 8.55231 6.55225 9 6 9H4C3.44775 9 3 8.55231 3 8Z" fill="black"/>
<path d="M7 10C7 9.44769 7.44775 9 8 9C8.55225 9 9 9.44769 9 10V12C9 12.5523 8.55225 13 8 13C7.44775 13 7 12.5523 7 12V10Z" fill="black"/>
<path d="M5 13C5 14.1046 4.10457 15 3 15C1.89543 15 1 14.1046 1 13C1 11.8954 1.89543 11 3 11C4.10457 11 5 11.8954 5 13Z" fill="black"/>
<path d="M13 5C14.1046 5 15 4.10457 15 3C15 1.89543 14.1046 1 13 1C11.8954 1 11 1.89543 11 3C11 4.10457 11.8954 5 13 5Z" fill="black"/>
</svg>

<svg xmlns="http://www.w3.org/2000/svg" viewBox="0 0 16 16">
  <path d="M2.1 9.101a4 4 0 0 0-1.828.974A8 8 0 0 1 10.075.272 4 4 0 0 0 9.1 2.1a6 6 0 0 0-7 7M14 8a6 6 0 0 0-.1-1.101 4 4 0 0 0 1.828-.974 8 8 0 0 1-9.803 9.803A4 4 0 0 0 6.9 13.9Q7.435 14 8 14a6 6 0 0 0 6-6"/>
  <path d="M8 3a1 1 0 0 0-1 1v2a1 1 0 0 0 2 0V4a1 1 0 0 0-1-1M9 8a1 1 0 0 1 1-1h2a1 1 0 0 1 0 2h-2a1 1 0 0 1-1-1M3 8a1 1 0 0 1 1-1h2a1 1 0 0 1 0 2H4a1 1 0 0 1-1-1M7 10a1 1 0 0 1 2 0v2a1 1 0 0 1-2 0zM5 13a2 2 0 1 1-4 0 2 2 0 0 1 4 0M13 5a2 2 0 1 0 0-4 2 2 0 0 0 0 4"/>
</svg>
